X:1
T:Se questa valle
T:Se questa valle
T:Rinaldo del Mel
C:Rinaldo del Mel
%%score [ 1 2 3 ] { ( 4 5 ) | 6 }
L:1/8
Q:1/4=120
M:4/4
K:C
V:1 treble nm="Soprano" snm="S"
V:2 treble nm="Alto" snm="A"
V:3 treble-8 nm="Tenor" snm="T"
V:4 treble nm="MusicXML Part"
V:5 treble 
V:6 bass 
V:1
 e4 e2 e2 | E6 F2 | G2 A2 G2 ^F2 | G8 | A8 | ^G4 z2 c2 | c3 B c2 A2 | BcdB c4 | G2 G2 G2 A2 | %9
w: Se que- sta|val- le|di mi- se- ria|pe-||na, par|co- si'a me- na'e|va- * * * *|ga, par co- si'a|
w: Se que- sto|tem- pe-|sto- so mar di|pian-||to, e|dol- ce tan- to'a|chi, _ _ _ _|_ e dol- ce|
 B2 B2 edcB | c2 A2 G2 A2 | B4 ^c4 :: z4 c4 | B2 AG A4- | A2 A2 _B4 | A2 AA A2 G2 | ^F4 F4 | %17
w: me- na'e va- * * *|ga hor che fia|quel- la.|Be-|a- * * *|* ta'e bel-|la re- gi- on di|pa- ce|
w: tan- to'a chi _ _ _|_ con fra- gil|bar- ca.|Er-|ran- * * do|_ il var-|ca qual gio- ia'e con-|for- to|
 A2 AB c4 | B4 c2 BA | ^G8 |"^#" G4 z4 | e2 dc B4 | ^c8 :| %23
w: pa- tria ve- ra-|ce? Pa- tria ve-|ra-|ce?|Pa- tria ve- ra-|ce?|
w: sa- ra nel por-|to? Sa- ra nel|por-|to?|Sa- ra nel por-|to?|
V:2
 z4 G4 | G2 G2 G4- | G2 F2 E2 D2 | E4 E4- | E4 D4 | E4 z2 E2 | E3 E E2 F2 | D4 C2 E2 | E3 D E2 C2 | %9
w: Se|que- sta val-|* le di mi-|se- ria|_ pie-|na, par|co- si'a me- na'e|va- ga, par|co- si'a me- na'e|
w: Se|que- sto tem-|* pe- sto- so|mar di|_ pian-|to, e|dol- ce tan- to'a|chi, _ e|dol- ce tan- to'a|
w: |||||||||
 D4 C4 | A,B,CD E2 A2 | ^G4 A4 :: z4 E4 | F6 ED | E2 F2 D4 | C2 CC C2 B,2 | A,4 A,4 | F2 ED C4 | %18
w: va- ga|hor _ _ _ che fia|quel- la.|Be-|a- * *|* ta'e bel-|la re- gi- on di|pa- ce|pa- tria ve- ra-|
w: chi _|con _ _ _ fra- gil|bar- ca.|Er-|ran _ _|do il var-|ca qual gio- ia'e con-|for- to-|sa- ra nel por-|
w: |||||||||
 D4 z4 | E2 DC B,4 | B,4 C2 B,A, | ^G,2 B,4 G,2 | A,8 :| %23
w: ce?|Pa- tria ve- ra-|ce? Pa- tria ve-|ra- * *|ce?|
w: to?|||||
w: |Sa- ra nel por-|to? Sa- ra nel|por- * *|to?|
V:3
 z4 c4 | c2 c2 C4 | C4 C2 D2 | C4 C4 | F8 | E4 z2 A2 | A3 ^G A2 F2 | G4 C2 c2 | c3 B c2 A2 | %9
w: Se|que- sta val-|le di mi-|se- ria|pie-|na, par|co- si'a me- na'e|va- ga, par|co- si'a me- na'e|
w: Se|que- sto tem-|pe- sto- so|mar i|pian-|to, e|dol- ce tan- to'a|chi, _ e|dol- ce tan- to'a|
 G4 c2 F2- | FGAB c2 A2 | E4 A4 :: z4 c4 | d6 cB | ^c2 d2 G4 | A2 FF F2 G2 | D4 D4 | d2 cB A4 | %18
w: va- ga hor|_ _ _ _ _ fa|quel- la.|Be-|a _ _|_ ta'e bel-|la re- gi- on di|pa- ce|pa- tria ve- ra-|
w: chi _ con|_ _ _ _ fra- gil|bar- ca.|Er|ran _ _|do il var-|ca qual gio- ia'e con-|for- to|sa- ra nel por-|
 G4 A2 GF | E8 | E4 A2 GF | E8 | A8 :| %23
w: ce? Pa- tria ve-|ra-|ce? Pa- tria ve-|ra-|ce?|
w: to? Sa- ra nel|por-|to? Sa- ra nel|por-|to?|
V:4
 e4 e2 e2 | G2 G2 G4 | G2 A2 G2 ^F2 | G8 | A8 | ^G4 z2 c2 | c3 B c2 A2 | BcdB c4 | G2 G2 G2 A2 | %9
 B2 B2 edcB | c2 A2 G2 A2 | B4 ^c4 :: z4 c4 | B2 AG A4- | A4 _B4 | A2 A2 A2 G2 | ^F4 F4 | %17
 A2 AB c4 | [GB]4 c2 BA | ^G8 | ^G4 z4 | e2 dc B4 | ^c8 :| %23
V:5
 z4 G4 | E6 F2 | z2 F2 E2 D2 | E4 E4- | E2 DC D4 | E4 E4 | E3 E E2 F2 | G4 E2 z2 | E3 E E2 C2 | %9
 D4 E2 F2 | F4 E2 E2 | E4 E4 :: z4 E4 | F6 ED | E2 F2 D4 | [CE]2 [CFA]2 C2 [B,D]2 | D4 D4 | %17
 F2 ED C4 | D4 C2 D2 | E2 DC B,2 A,2 | B,2 A,B, C2 B,A, | ^G,2 A,4 G,2 | E8 :| %23
V:6
 z4 C4 | C2 C2 C4 | C8 | z8 | A,8 | z6 A,2 | A,3 ^G, C2 C2 | D4 C2 E2 | C3 B, C2 A,2 | %9
 G,4 C2 [F,C]2 | [F,A,][G,B,][A,C][B,D] C2 A,2 | E,4 A,4 :: z4 C4 | D6 CB, | ^C2 D2 G,4 | %15
 A,2 F,2 F,2 G,2 | [D,A,]4 [D,A,]4 | D2 CB, A,4 | G,4 A,2 G,F, | E,8- | E,4 A,2 G,F, | E,8 | %22
 [A,,A,]8 :| %23

